X:1    
T:I'll Build Myself A Gallant Ship
F:http://www.folkinfo.org/songs
B:Songs of the West, S Baring Gould
S:Taken from J.Watts, quarryman, Thrushleton.
M:3/4     
L:1/4    
K:Eb
E|E1/2 G1/2 G F|F1/2 E1/2 E B|B/2 c/2 c A|(c/2B/2) z E|
w:I'll build my-self a gal-lant ship, A ship of no-ble fame,* And
E/2 G/2 G F|F/2 E/2 E B|B/2 c/2 c A|(c/2B/2) z B|
w:four and twen-ty mar-i-ners, Shall box and man the same,* And
e3/4 d/4 e/2 c/2 A/2 c/2|(B G3/2) E/2|E/2 G/2 G F|(F E) z/2 G/2|
w:I will stand with helm in hand,* To urge them o'er the main,* to
G F z/2 B/2|e B z/2 B/2|e3/4 d1/4 e/2 c/2 A/2 c/2|(B G) E|
w:urge them, to urge them, And I will stand with helm in hand,* To
E/2 G/2 G F|(F E) z|
w:urge them o'er the main.